assets/1. P-Z/Trident emblem/Color/Trident.Emblem-color.svg

<svg width="100%" height="100%" viewBox="0 0 32 32" fill="none" xmlns="http://www.w3.org/2000/svg">
<g filter="url(#filter0_i_18590_1947)">
<path d="M19.4664 30.1195H12.4723C11.6472 30.1195 10.9694 29.4528 10.9694 28.6195C10.9694 27.796 11.6373 27.1195 12.4723 27.1195H19.4664C20.2916 27.1195 20.9694 27.7862 20.9694 28.6195C20.9595 29.4528 20.2916 30.1195 19.4664 30.1195Z" fill="url(#paint0_linear_18590_1947)"/>
</g>
<g filter="url(#filter1_iii_18590_1947)">
<path d="M24.8032 6.73566C24.9233 8.44318 25.7441 10.0603 27.0855 11.2154C29.0575 12.9129 30.2086 15.3839 30.2186 17.9853C30.2486 20.3859 29.3277 22.666 27.616 24.3936C25.8842 26.1614 23.5819 27.1257 21.1295 27.1257H19.6033C19.5582 27.1216 19.5125 27.1195 19.4664 27.1195H12.4723C12.4259 27.1195 12.38 27.1216 12.3348 27.1257H10.8092C8.35672 27.1257 6.05435 26.1514 4.32266 24.3936C2.62094 22.666 1.69004 20.3859 1.72006 17.9853C1.75009 15.3839 2.89121 12.9129 4.86319 11.2154C6.21457 10.0603 7.02536 8.44318 7.15549 6.73566H5.14347C4.68302 6.73566 4.48282 6.15308 4.84317 5.87183L9.31766 2.32617C9.68802 2.04492 10.2185 2.30606 10.2185 2.76813L10.2085 6.73566C10.2085 9.49783 8.99735 11.7076 6.87522 13.5558C5.57389 14.6707 4.81314 16.3079 4.79312 18.0255C4.7731 19.6025 5.3837 21.0991 6.51486 22.2441C7.66599 23.4193 9.19754 24.0622 10.8292 24.0622C12.8412 24.0622 14.4628 22.425 14.4628 20.4161V6.73566H13.1315C12.641 6.73566 12.3607 6.16312 12.661 5.77139L15.2937 2.35629C15.594 1.96457 16.1745 1.96457 16.4748 2.35629L19.1075 5.77139C19.4077 6.16312 19.1275 6.73566 18.637 6.73566H17.5159V20.396C17.5159 22.4149 19.1475 24.0421 21.1495 24.0421C22.7712 24.0421 24.3127 23.3993 25.4638 22.2241C26.595 21.0891 27.2056 19.5824 27.1856 18.0054C27.1656 16.2878 26.4048 14.6606 25.1035 13.5357C22.9613 11.6976 21.7502 9.49783 21.7502 6.72559L21.7401 2.76813C21.7401 2.30606 22.2707 2.04492 22.641 2.33621L27.1155 5.87183C27.4659 6.16312 27.2657 6.73566 26.8152 6.73566H24.8032Z" fill="url(#paint1_linear_18590_1947)"/>
</g>
<path d="M24.8032 6.73566C24.9233 8.44318 25.7441 10.0603 27.0855 11.2154C29.0575 12.9129 30.2086 15.3839 30.2186 17.9853C30.2486 20.3859 29.3277 22.666 27.616 24.3936C25.8842 26.1614 23.5819 27.1257 21.1295 27.1257H19.6033C19.5582 27.1216 19.5125 27.1195 19.4664 27.1195H12.4723C12.4259 27.1195 12.38 27.1216 12.3348 27.1257H10.8092C8.35672 27.1257 6.05435 26.1514 4.32266 24.3936C2.62094 22.666 1.69004 20.3859 1.72006 17.9853C1.75009 15.3839 2.89121 12.9129 4.86319 11.2154C6.21457 10.0603 7.02536 8.44318 7.15549 6.73566H5.14347C4.68302 6.73566 4.48282 6.15308 4.84317 5.87183L9.31766 2.32617C9.68802 2.04492 10.2185 2.30606 10.2185 2.76813L10.2085 6.73566C10.2085 9.49783 8.99735 11.7076 6.87522 13.5558C5.57389 14.6707 4.81314 16.3079 4.79312 18.0255C4.7731 19.6025 5.3837 21.0991 6.51486 22.2441C7.66599 23.4193 9.19754 24.0622 10.8292 24.0622C12.8412 24.0622 14.4628 22.425 14.4628 20.4161V6.73566H13.1315C12.641 6.73566 12.3607 6.16312 12.661 5.77139L15.2937 2.35629C15.594 1.96457 16.1745 1.96457 16.4748 2.35629L19.1075 5.77139C19.4077 6.16312 19.1275 6.73566 18.637 6.73566H17.5159V20.396C17.5159 22.4149 19.1475 24.0421 21.1495 24.0421C22.7712 24.0421 24.3127 23.3993 25.4638 22.2241C26.595 21.0891 27.2056 19.5824 27.1856 18.0054C27.1656 16.2878 26.4048 14.6606 25.1035 13.5357C22.9613 11.6976 21.7502 9.49783 21.7502 6.72559L21.7401 2.76813C21.7401 2.30606 22.2707 2.04492 22.641 2.33621L27.1155 5.87183C27.4659 6.16312 27.2657 6.73566 26.8152 6.73566H24.8032Z" fill="url(#paint2_radial_18590_1947)"/>
<path d="M24.8032 6.73566C24.9233 8.44318 25.7441 10.0603 27.0855 11.2154C29.0575 12.9129 30.2086 15.3839 30.2186 17.9853C30.2486 20.3859 29.3277 22.666 27.616 24.3936C25.8842 26.1614 23.5819 27.1257 21.1295 27.1257H19.6033C19.5582 27.1216 19.5125 27.1195 19.4664 27.1195H12.4723C12.4259 27.1195 12.38 27.1216 12.3348 27.1257H10.8092C8.35672 27.1257 6.05435 26.1514 4.32266 24.3936C2.62094 22.666 1.69004 20.3859 1.72006 17.9853C1.75009 15.3839 2.89121 12.9129 4.86319 11.2154C6.21457 10.0603 7.02536 8.44318 7.15549 6.73566H5.14347C4.68302 6.73566 4.48282 6.15308 4.84317 5.87183L9.31766 2.32617C9.68802 2.04492 10.2185 2.30606 10.2185 2.76813L10.2085 6.73566C10.2085 9.49783 8.99735 11.7076 6.87522 13.5558C5.57389 14.6707 4.81314 16.3079 4.79312 18.0255C4.7731 19.6025 5.3837 21.0991 6.51486 22.2441C7.66599 23.4193 9.19754 24.0622 10.8292 24.0622C12.8412 24.0622 14.4628 22.425 14.4628 20.4161V6.73566H13.1315C12.641 6.73566 12.3607 6.16312 12.661 5.77139L15.2937 2.35629C15.594 1.96457 16.1745 1.96457 16.4748 2.35629L19.1075 5.77139C19.4077 6.16312 19.1275 6.73566 18.637 6.73566H17.5159V20.396C17.5159 22.4149 19.1475 24.0421 21.1495 24.0421C22.7712 24.0421 24.3127 23.3993 25.4638 22.2241C26.595 21.0891 27.2056 19.5824 27.1856 18.0054C27.1656 16.2878 26.4048 14.6606 25.1035 13.5357C22.9613 11.6976 21.7502 9.49783 21.7502 6.72559L21.7401 2.76813C21.7401 2.30606 22.2707 2.04492 22.641 2.33621L27.1155 5.87183C27.4659 6.16312 27.2657 6.73566 26.8152 6.73566H24.8032Z" fill="url(#paint3_radial_18590_1947)"/>
<defs>
<filter id="filter0_i_18590_1947" x="10.9694" y="27.1195" width="10.5" height="3" filterUnits="userSpaceOnUse" color-interpolation-filters="sRGB">
<feFlood flood-opacity="0" result="BackgroundImageFix"/>
<feBlend mode="normal" in="SourceGraphic" in2="BackgroundImageFix" result="shape"/>
<feColorMatrix in="SourceAlpha" type="matrix" values="0 0 0 0 0 0 0 0 0 0 0 0 0 0 0 0 0 0 127 0" result="hardAlpha"/>
<feOffset dx="0.5"/>
<feGaussianBlur stdDeviation="0.5"/>
<feComposite in2="hardAlpha" operator="arithmetic" k2="-1" k3="1"/>
<feColorMatrix type="matrix" values="0 0 0 0 0.921569 0 0 0 0 0.513726 0 0 0 0 0.341176 0 0 0 1 0"/>
<feBlend mode="normal" in2="shape" result="effect1_innerShadow_18590_1947"/>
</filter>
<filter id="filter1_iii_18590_1947" x="0.71936" y="1.3125" width="30.4999" height="25.8132" filterUnits="userSpaceOnUse" color-interpolation-filters="sRGB">
<feFlood flood-opacity="0" result="BackgroundImageFix"/>
<feBlend mode="normal" in="SourceGraphic" in2="BackgroundImageFix" result="shape"/>
<feColorMatrix in="SourceAlpha" type="matrix" values="0 0 0 0 0 0 0 0 0 0 0 0 0 0 0 0 0 0 127 0" result="hardAlpha"/>
<feOffset dx="-1.25"/>
<feGaussianBlur stdDeviation="0.5"/>
<feComposite in2="hardAlpha" operator="arithmetic" k2="-1" k3="1"/>
<feColorMatrix type="matrix" values="0 0 0 0 1 0 0 0 0 0.890196 0 0 0 0 0.368627 0 0 0 1 0"/>
<feBlend mode="normal" in2="shape" result="effect1_innerShadow_18590_1947"/>
<feColorMatrix in="SourceAlpha" type="matrix" values="0 0 0 0 0 0 0 0 0 0 0 0 0 0 0 0 0 0 127 0" result="hardAlpha"/>
<feOffset dy="-0.75"/>
<feGaussianBlur stdDeviation="0.5"/>
<feComposite in2="hardAlpha" operator="arithmetic" k2="-1" k3="1"/>
<feColorMatrix type="matrix" values="0 0 0 0 1 0 0 0 0 0.564706 0 0 0 0 0.305882 0 0 0 1 0"/>
<feBlend mode="normal" in2="effect1_innerShadow_18590_1947" result="effect2_innerShadow_18590_1947"/>
<feColorMatrix in="SourceAlpha" type="matrix" values="0 0 0 0 0 0 0 0 0 0 0 0 0 0 0 0 0 0 127 0" result="hardAlpha"/>
<feOffset dx="1"/>
<feGaussianBlur stdDeviation="0.5"/>
<feComposite in2="hardAlpha" operator="arithmetic" k2="-1" k3="1"/>
<feColorMatrix type="matrix" values="0 0 0 0 0.933333 0 0 0 0 0.639216 0 0 0 0 0.231373 0 0 0 1 0"/>
<feBlend mode="normal" in2="effect2_innerShadow_18590_1947" result="effect3_innerShadow_18590_1947"/>
</filter>
<linearGradient id="paint0_linear_18590_1947" x1="15.9694" y1="27.1195" x2="15.9694" y2="30.1195" gradientUnits="userSpaceOnUse">
<stop offset="0.178904" stop-color="#FFCA50"/>
<stop offset="1" stop-color="#FF9558"/>
</linearGradient>
<linearGradient id="paint1_linear_18590_1947" x1="15.9693" y1="2.0625" x2="15.9693" y2="27.1257" gradientUnits="userSpaceOnUse">
<stop stop-color="#FFC445"/>
<stop offset="1" stop-color="#FFB54E"/>
</linearGradient>
<radialGradient id="paint2_radial_18590_1947" cx="0" cy="0" r="1" gradientUnits="userSpaceOnUse" gradientTransform="translate(17.5161 2.875) rotate(56.8215) scale(3.88306 1.848)">
<stop stop-color="#FFE65F"/>
<stop offset="1" stop-color="#FFE65F" stop-opacity="0"/>
</radialGradient>
<radialGradient id="paint3_radial_18590_1947" cx="0" cy="0" r="1" gradientUnits="userSpaceOnUse" gradientTransform="translate(10.6098 1.75) rotate(124.019) scale(3.01623 0.6838)">
<stop stop-color="#FFE65F"/>
<stop offset="1" stop-color="#FFE65F" stop-opacity="0"/>
</radialGradient>
</defs>
</svg>

<svg width="100%" height="100%" viewBox="0 0 32 32" xmlns="http://www.w3.org/2000/svg"><g filter="url(#a)"><path fill="url(#b)" d="M19.466 30.12h-6.994a1.5 1.5 0 0 1-1.503-1.5c0-.824.668-1.5 1.503-1.5h6.994c.826 0 1.503.666 1.503 1.5-.01.833-.677 1.5-1.503 1.5"/></g><g filter="url(#c)"><path fill="url(#d)" d="M24.803 6.736c.12 1.707.941 3.324 2.282 4.48a9 9 0 0 1 3.134 6.77c.03 2.4-.891 4.68-2.603 6.408a9 9 0 0 1-6.486 2.732h-1.527a2 2 0 0 0-.137-.007h-6.994q-.07 0-.137.007h-1.526c-2.452 0-4.755-.975-6.486-2.732-1.702-1.728-2.633-4.008-2.603-6.409a9.07 9.07 0 0 1 3.143-6.77 6.56 6.56 0 0 0 2.292-4.48H5.143c-.46 0-.66-.582-.3-.863l4.475-3.546a.56.56 0 0 1 .9.442l-.01 3.968c0 2.762-1.21 4.972-3.333 6.82a6 6 0 0 0-2.082 4.47c-.02 1.576.59 3.073 1.722 4.218a6 6 0 0 0 4.314 1.818 3.64 3.64 0 0 0 3.634-3.646V6.736h-1.331a.6.6 0 0 1-.471-.965l2.633-3.415a.74.74 0 0 1 1.18 0l2.634 3.415a.6.6 0 0 1-.471.965h-1.121v13.66a3.64 3.64 0 0 0 3.634 3.646 6 6 0 0 0 4.314-1.818 5.85 5.85 0 0 0 1.722-4.219 6 6 0 0 0-2.082-4.47c-2.143-1.837-3.354-4.037-3.354-6.81l-.01-3.957c0-.462.53-.723.901-.432l4.475 3.536c.35.291.15.864-.3.864z"/></g><path fill="url(#e)" d="M24.803 6.736c.12 1.707.941 3.324 2.282 4.48a9 9 0 0 1 3.134 6.77c.03 2.4-.891 4.68-2.603 6.408a9 9 0 0 1-6.486 2.732h-1.527a2 2 0 0 0-.137-.007h-6.994q-.07 0-.137.007h-1.526c-2.452 0-4.755-.975-6.486-2.732-1.702-1.728-2.633-4.008-2.603-6.409a9.07 9.07 0 0 1 3.143-6.77 6.56 6.56 0 0 0 2.292-4.48H5.143c-.46 0-.66-.582-.3-.863l4.475-3.546a.56.56 0 0 1 .9.442l-.01 3.968c0 2.762-1.21 4.972-3.333 6.82a6 6 0 0 0-2.082 4.47c-.02 1.576.59 3.073 1.722 4.218a6 6 0 0 0 4.314 1.818 3.64 3.64 0 0 0 3.634-3.646V6.736h-1.331a.6.6 0 0 1-.471-.965l2.633-3.415a.74.74 0 0 1 1.18 0l2.634 3.415a.6.6 0 0 1-.471.965h-1.121v13.66a3.64 3.64 0 0 0 3.634 3.646 6 6 0 0 0 4.314-1.818 5.85 5.85 0 0 0 1.722-4.219 6 6 0 0 0-2.082-4.47c-2.143-1.837-3.354-4.037-3.354-6.81l-.01-3.957c0-.462.53-.723.901-.432l4.475 3.536c.35.291.15.864-.3.864z"/><path fill="url(#f)" d="M24.803 6.736c.12 1.707.941 3.324 2.282 4.48a9 9 0 0 1 3.134 6.77c.03 2.4-.891 4.68-2.603 6.408a9 9 0 0 1-6.486 2.732h-1.527a2 2 0 0 0-.137-.007h-6.994q-.07 0-.137.007h-1.526c-2.452 0-4.755-.975-6.486-2.732-1.702-1.728-2.633-4.008-2.603-6.409a9.07 9.07 0 0 1 3.143-6.77 6.56 6.56 0 0 0 2.292-4.48H5.143c-.46 0-.66-.582-.3-.863l4.475-3.546a.56.56 0 0 1 .9.442l-.01 3.968c0 2.762-1.21 4.972-3.333 6.82a6 6 0 0 0-2.082 4.47c-.02 1.576.59 3.073 1.722 4.218a6 6 0 0 0 4.314 1.818 3.64 3.64 0 0 0 3.634-3.646V6.736h-1.331a.6.6 0 0 1-.471-.965l2.633-3.415a.74.74 0 0 1 1.18 0l2.634 3.415a.6.6 0 0 1-.471.965h-1.121v13.66a3.64 3.64 0 0 0 3.634 3.646 6 6 0 0 0 4.314-1.818 5.85 5.85 0 0 0 1.722-4.219 6 6 0 0 0-2.082-4.47c-2.143-1.837-3.354-4.037-3.354-6.81l-.01-3.957c0-.462.53-.723.901-.432l4.475 3.536c.35.291.15.864-.3.864z"/><defs><radialGradient id="e" cx="0" cy="0" r="1" gradientTransform="matrix(2.125 3.25 -1.54672 1.01132 17.516 2.875)" gradientUnits="userSpaceOnUse"><stop stop-color="#FFE65F"/><stop offset="1" stop-color="#FFE65F" stop-opacity="0"/></radialGradient><radialGradient id="f" cx="0" cy="0" r="1" gradientTransform="matrix(-1.68748 2.5 -.56677 -.38256 10.61 1.75)" gradientUnits="userSpaceOnUse"><stop stop-color="#FFE65F"/><stop offset="1" stop-color="#FFE65F" stop-opacity="0"/></radialGradient><linearGradient id="b" x1="15.969" x2="15.969" y1="27.119" y2="30.119" gradientUnits="userSpaceOnUse"><stop offset=".179" stop-color="#FFCA50"/><stop offset="1" stop-color="#FF9558"/></linearGradient><linearGradient id="d" x1="15.969" x2="15.969" y1="2.063" y2="27.126" gradientUnits="userSpaceOnUse"><stop stop-color="#FFC445"/><stop offset="1" stop-color="#FFB54E"/></linearGradient><filter id="a" width="10.5" height="3" x="10.969" y="27.119" color-interpolation-filters="sRGB" filterUnits="userSpaceOnUse"><feFlood flood-opacity="0" result="BackgroundImageFix"/><feBlend in="SourceGraphic" in2="BackgroundImageFix" result="shape"/><feColorMatrix in="SourceAlpha" result="hardAlpha" values="0 0 0 0 0 0 0 0 0 0 0 0 0 0 0 0 0 0 127 0"/><feOffset dx=".5"/><feGaussianBlur stdDeviation=".5"/><feComposite in2="hardAlpha" k2="-1" k3="1" operator="arithmetic"/><feColorMatrix values="0 0 0 0 0.921569 0 0 0 0 0.513726 0 0 0 0 0.341176 0 0 0 1 0"/><feBlend in2="shape" result="effect1_innerShadow_18590_1947"/></filter><filter id="c" width="30.5" height="25.813" x=".719" y="1.313" color-interpolation-filters="sRGB" filterUnits="userSpaceOnUse"><feFlood flood-opacity="0" result="BackgroundImageFix"/><feBlend in="SourceGraphic" in2="BackgroundImageFix" result="shape"/><feColorMatrix in="SourceAlpha" result="hardAlpha" values="0 0 0 0 0 0 0 0 0 0 0 0 0 0 0 0 0 0 127 0"/><feOffset dx="-1.25"/><feGaussianBlur stdDeviation=".5"/><feComposite in2="hardAlpha" k2="-1" k3="1" operator="arithmetic"/><feColorMatrix values="0 0 0 0 1 0 0 0 0 0.890196 0 0 0 0 0.368627 0 0 0 1 0"/><feBlend in2="shape" result="effect1_innerShadow_18590_1947"/><feColorMatrix in="SourceAlpha" result="hardAlpha" values="0 0 0 0 0 0 0 0 0 0 0 0 0 0 0 0 0 0 127 0"/><feOffset dy="-.75"/><feGaussianBlur stdDeviation=".5"/><feComposite in2="hardAlpha" k2="-1" k3="1" operator="arithmetic"/><feColorMatrix values="0 0 0 0 1 0 0 0 0 0.564706 0 0 0 0 0.305882 0 0 0 1 0"/><feBlend in2="effect1_innerShadow_18590_1947" result="effect2_innerShadow_18590_1947"/><feColorMatrix in="SourceAlpha" result="hardAlpha" values="0 0 0 0 0 0 0 0 0 0 0 0 0 0 0 0 0 0 127 0"/><feOffset dx="1"/><feGaussianBlur stdDeviation=".5"/><feComposite in2="hardAlpha" k2="-1" k3="1" operator="arithmetic"/><feColorMatrix values="0 0 0 0 0.933333 0 0 0 0 0.639216 0 0 0 0 0.231373 0 0 0 1 0"/><feBlend in2="effect2_innerShadow_18590_1947" result="effect3_innerShadow_18590_1947"/></filter></defs></svg>
